style-guide/assets/wds-icons-quote-small.svg

<svg xmlns="http://www.w3.org/2000/svg" xmlns:xlink="http://www.w3.org/1999/xlink" width="18" height="18" viewBox="0 0 18 18">
  <defs>
    <path id="quote-a" d="M4,14.0007828 C2.897,14.0007828 2,13.1047828 2,12.0007828 C2,10.8967828 2.897,10.0007828 4,10.0007828 C5.103,10.0007828 6,10.8967828 6,12.0007828 C6,13.1047828 5.103,14.0007828 4,14.0007828 M4,8.00078276 C3.52,8.00078276 3.059,8.08578276 2.631,8.24178276 C3.379,6.05978276 4.758,4.12578276 6.584,2.81278276 C7.032,2.48978276 7.134,1.86478276 6.812,1.41678276 C6.489,0.968782762 5.865,0.864782762 5.416,1.18878276 C2.075,3.59278276 0,7.73478276 0,12.0007828 C0,14.2057828 1.794,16.0007828 4,16.0007828 C6.206,16.0007828 8,14.2057828 8,12.0007828 C8,9.79578276 6.206,8.00078276 4,8.00078276 M14,14.0007828 C12.897,14.0007828 12,13.1047828 12,12.0007828 C12,10.8967828 12.897,10.0007828 14,10.0007828 C15.103,10.0007828 16,10.8967828 16,12.0007828 C16,13.1047828 15.103,14.0007828 14,14.0007828 M14,8.00078276 C13.52,8.00078276 13.059,8.08578276 12.631,8.24178276 C13.379,6.05978276 14.758,4.12578276 16.584,2.81278276 C17.032,2.48978276 17.134,1.86478276 16.812,1.41678276 C16.489,0.968782762 15.864,0.864782762 15.416,1.18878276 C12.075,3.59278276 10,7.73478276 10,12.0007828 C10,14.2057828 11.794,16.0007828 14,16.0007828 C16.206,16.0007828 18,14.2057828 18,12.0007828 C18,9.79578276 16.206,8.00078276 14,8.00078276"/>
  </defs>
  <use fill-rule="evenodd" xlink:href="#quote-a"/>
</svg>

<svg viewBox="0 0 18 18" xmlns="http://www.w3.org/2000/svg">
  <path d="M4 14a2 2 0 0 1 0-4 2 2 0 0 1 0 4m0-6c-.48 0-.941.086-1.369.242.748-2.182 2.127-4.116 3.953-5.43A1.001 1.001 0 0 0 5.416 1.19C2.075 3.593 0 7.735 0 12c0 2.205 1.794 4 4 4s4-1.795 4-4-1.794-4-4-4m10 6c-1.103 0-2-.896-2-2s.897-2 2-2 2 .896 2 2-.897 2-2 2m0-6c-.48 0-.941.085-1.369.24.748-2.181 2.127-4.115 3.953-5.428a1.001 1.001 0 0 0-1.168-1.624C12.075 3.593 10 7.735 10 12c0 2.205 1.794 4 4 4s4-1.795 4-4-1.794-4-4-4"/>
</svg>
